X:56
T:Stack of Barley
Z: id:dc-hornpipe-50
M:C|
L:1/8
K:A Major
ag|f2fe c2ec|B2BA BdcB|AGAB cBce|f2B2 B2ce|!
f2fe c2ec|B2BA BdcB|AGAB ceBd|c2A2 A2:|!
AB|cAce a2ga|baga f2e2|a2ga fece|f2B2 B2ga|!
bagb a2gf|ecBA BdcB|AGAB ceBd|c2A2 A2:|!

